X: 11141
T: Dulaman Na Binne Bui
R: strathspey
M: 4/4
K: Dmajor
A>A (3ABc d2 A>F|G>G (3GED E2 G>E|A<AB>c d2 F>G|A>AG<E D2 D2-|HD8||
K: DMix
A>GE>D C>DE<G|A>GE>D G2- G2|A>GE>D C<DE>G|A>Gc<E D2 D2-|HD8||

